!!!id: bhatk3198a
!!!vol: 3
!!!page: 198
!!!antara: Aasha treshna
!!!raag: bihag
!!!taal: teental
!!!tempo: madhyalaya
**kern
!!data: // >MG  M  G  M/  P  -  >S'N  -/  -  S'  -  S'/  S'  -  S'  S'/
==1
fq
4e
4f
4e
4f
=
2g
ccq
[2b
=
4b]
2cc
4cc
=
2cc
4cc
4cc
!!data: // >NS'  -  %S'  -/N  -  -  P/  >mP  -  S'  -/  >DN  -  P  -/
==2
bq
2cc
2ccS
=
2.b
4g
=
f#q
2g
2cc
=
aq
2b
2g
!!data: // >PG  M  G  M/  P  - N  -/  >NS'  G'  >R'S'  S'/  N  -  P  -/
==3
gq
4e
4f
4e
4f
=
2g
2b
=
bq
4cc
4ee
ddq
4cc
4cc
=
2b
2g
!!data: // >mP  -  >PGM  >RG/  G  M  >DP  -/  >GM  G  M  GR/  S  -  -  -/
==4
f#q
2g
gq
8e
8f
dq
4e
=
4e
4f
aq
2g
=
eq
4f
4e
4f
8e
8d
=
1c
==
*-
